icons/Media/camera-3-fill.svg

<svg viewBox="0 0 24 24" xmlns="http://www.w3.org/2000/svg"><path d="M2 6.00087C2 5.44811 2.45531 5 2.9918 5H21.0082C21.556 5 22 5.44463 22 6.00087V19.9991C22 20.5519 21.5447 21 21.0082 21H2.9918C2.44405 21 2 20.5554 2 19.9991V6.00087ZM14 18C16.7614 18 19 15.7614 19 13C19 10.2386 16.7614 8 14 8C11.2386 8 9 10.2386 9 13C9 15.7614 11.2386 18 14 18ZM4 7V9H7V7H4ZM4 2H10V4H4V2Z"/></svg>

<svg xmlns="http://www.w3.org/2000/svg" viewBox="0 0 24 24">
    <g>
        <path fill="none" d="M0 0h24v24H0z"/>
        <path d="M2 6c0-.552.455-1 .992-1h18.016c.548 0 .992.445.992 1v14c0 .552-.455 1-.992 1H2.992A.994.994 0 0 1 2 20V6zm12 12a5 5 0 1 0 0-10 5 5 0 0 0 0 10zM4 7v2h3V7H4zm0-5h6v2H4V2z"/>
    </g>
</svg>
